img/advantages/2.svg

<svg width="42" height="42" viewBox="0 0 42 42" fill="none" xmlns="http://www.w3.org/2000/svg">
<path d="M24.984 15.5745C24.6463 15.5746 24.3191 15.6919 24.0582 15.9063C23.7973 16.1206 23.6188 16.4188 23.5531 16.75C23.4873 17.0813 23.5385 17.425 23.6978 17.7227C23.8572 18.0205 24.1148 18.2537 24.4268 18.3828C24.7389 18.5119 25.086 18.5288 25.4091 18.4306C25.7322 18.3325 26.0112 18.1253 26.1987 17.8445C26.3862 17.5636 26.4705 17.2264 26.4373 16.8904C26.404 16.5544 26.2553 16.2402 26.0165 16.0016C25.881 15.8658 25.72 15.7582 25.5429 15.6849C25.3657 15.6116 25.1757 15.5741 24.984 15.5745Z" fill="#7171E2"/>
<path d="M33.1101 9.73765C33.1098 9.73602 33.1098 9.73436 33.1101 9.73273C33.0638 9.53001 32.9618 9.34425 32.8156 9.19641C32.6694 9.04856 32.4848 8.94452 32.2826 8.89601C30.653 8.49844 28.0892 8.92226 25.2482 10.0598C22.3847 11.2082 19.7018 12.9035 17.8883 14.7202C17.3071 15.2984 16.7671 15.9166 16.2723 16.5703C15.0512 16.5156 13.9755 16.6895 13.0693 17.0849C9.91162 18.4745 9.00983 22.0309 8.76975 23.491C8.73501 23.6985 8.74861 23.9112 8.8095 24.1125C8.87039 24.3139 8.97691 24.4985 9.12079 24.6519C9.26467 24.8054 9.44202 24.9236 9.63904 24.9973C9.83606 25.071 10.0474 25.0983 10.2567 25.077L10.2638 25.077L13.7813 24.693C13.7857 24.7379 13.7906 24.7789 13.7944 24.8166C13.8396 25.2453 14.0308 25.6453 14.3358 25.9498L16.0525 27.6675C16.3565 27.973 16.7565 28.1644 17.1851 28.2095L17.3026 28.222L16.9198 31.7352C16.9198 31.7352 16.9198 31.7395 16.9198 31.7423C16.9003 31.9315 16.9204 32.1227 16.9789 32.3037C17.0375 32.4846 17.1331 32.6514 17.2598 32.7933C17.3865 32.9352 17.5414 33.0491 17.7146 33.1278C17.8878 33.2064 18.0755 33.248 18.2657 33.25C18.3417 33.2501 18.4176 33.2438 18.4926 33.2314C19.961 32.9952 23.5157 32.1043 24.9015 28.9297C25.2936 28.0295 25.4669 26.9582 25.4183 25.7392C26.0749 25.2455 26.6954 24.7055 27.2749 24.1232C29.1031 22.3043 30.8039 19.6432 31.9403 16.8213C33.0718 14.0126 33.4978 11.4297 33.1101 9.73765ZM27.2552 19.3014C26.8059 19.7512 26.2332 20.0577 25.6097 20.1819C24.9861 20.3062 24.3397 20.2428 23.7522 19.9996C23.1648 19.7565 22.6626 19.3445 22.3093 18.8159C21.956 18.2873 21.7674 17.6658 21.7674 17.03C21.7674 16.3942 21.956 15.7726 22.3093 15.244C22.6626 14.7154 23.1648 14.3035 23.7522 14.0603C24.3397 13.8171 24.9861 13.7537 25.6097 13.878C26.2332 14.0023 26.8059 14.3087 27.2552 14.7585C27.5564 15.0552 27.7956 15.4088 27.9588 15.7987C28.1221 16.1887 28.2062 16.6072 28.2062 17.03C28.2062 17.4527 28.1221 17.8712 27.9588 18.2612C27.7956 18.6512 27.5564 19.0047 27.2552 19.3014Z" fill="#7171E2"/>
<path d="M15.8556 28.1334C15.644 28.1072 15.4301 28.1591 15.254 28.2794C14.9046 28.5184 14.5535 28.7547 14.1991 28.9849C13.4822 29.4509 12.6247 28.6327 13.0507 27.8912L13.7151 26.7427C13.8101 26.6038 13.863 26.4404 13.8675 26.2721C13.8719 26.1038 13.8277 25.9378 13.7402 25.794C13.6527 25.6502 13.5256 25.5347 13.3741 25.4614C13.2226 25.388 13.0531 25.3599 12.8861 25.3805C12.1486 25.4737 11.4631 25.8096 10.9375 26.3353C10.7374 26.536 10.1287 27.1452 9.80114 29.4667C9.7079 30.1335 9.64912 30.8047 9.62504 31.4776C9.62205 31.5944 9.64247 31.7106 9.6851 31.8193C9.72773 31.9281 9.79171 32.0272 9.87326 32.1108C9.95481 32.1945 10.0523 32.2609 10.1599 32.3063C10.2676 32.3517 10.3832 32.375 10.5 32.375L10.5219 32.375C11.1953 32.3512 11.867 32.2927 12.5344 32.2C14.857 31.8719 15.4662 31.2627 15.6664 31.0625C16.1945 30.5367 16.5296 29.848 16.6174 29.108C16.6455 28.8777 16.5811 28.6458 16.4382 28.463C16.2954 28.2803 16.0858 28.1617 15.8556 28.1334Z" fill="#7171E2"/>
</svg>

<svg width="42" height="42" fill="none" xmlns="http://www.w3.org/2000/svg"><path d="M24.984 15.575a1.459 1.459 0 1 0 .001 2.917 1.459 1.459 0 0 0-.001-2.918Z" fill="#7171E2"/><path d="M33.11 9.738v-.005a1.116 1.116 0 0 0-.827-.837c-1.63-.398-4.194.026-7.035 1.164-2.863 1.148-5.546 2.843-7.36 4.66a17.552 17.552 0 0 0-1.616 1.85c-1.22-.054-2.296.12-3.203.515-3.157 1.39-4.06 4.946-4.3 6.406a1.367 1.367 0 0 0 1.488 1.586h.007l3.517-.384.013.124c.046.428.237.828.542 1.133l1.716 1.718c.305.305.704.496 1.133.541l.118.013-.383 3.513v.007a1.369 1.369 0 0 0 1.346 1.508c.076 0 .152-.006.227-.019 1.468-.236 5.023-1.127 6.409-4.301.392-.9.565-1.972.516-3.19a17.216 17.216 0 0 0 1.857-1.617c1.828-1.819 3.529-4.48 4.665-7.302 1.132-2.808 1.558-5.391 1.17-7.083ZM27.255 19.3a3.213 3.213 0 1 1 0-4.542 3.188 3.188 0 0 1 0 4.542Z" fill="#7171E2"/><path d="M15.856 28.133a.876.876 0 0 0-.602.146c-.35.24-.7.476-1.055.706-.717.466-1.574-.352-1.148-1.094l.664-1.148a.875.875 0 0 0-.829-1.362 3.35 3.35 0 0 0-1.948.954c-.2.201-.81.81-1.137 3.132a19.576 19.576 0 0 0-.176 2.01.875.875 0 0 0 .875.898h.022a19.681 19.681 0 0 0 2.012-.175c2.323-.328 2.932-.937 3.132-1.138a3.308 3.308 0 0 0 .951-1.954.875.875 0 0 0-.761-.975Z" fill="#7171E2"/></svg>
